X:637
T:Jag sau i östa
R:Svingedans
Z:Patrik Månsson, 2008-10-08
O:Skåne
N:Not från allspelslåtarna till Degeberga 2006
M:3/4
L:1/8
K:G
|: D | G>G G2 DG | B>B B2 GB | d>d cB AB | cd B3 :|
|: B | d>d cB AB | c>d B2 G>G | B>B AF DF | AB G3 :|
(:musicend:)
1. Jag sau i östa, jag sau i vaista, 
jag sau i sönnan å jag sau i noa
Å ront ikring me dansa granna grebbo,
men inte sau jag den jag sau i fjoa

2. Jag har oitt aibel i mina lomma,
som jag ska gi te lilla vännen min,
men vell den vännen ente te me komma
sau aida jag väl opp mitt aibel säl

3. Nu har jag sludad mä å syba brännvin,
nu har jag sludad mä å spela koat,
nu har jag friat te na granna grebba
dä va dä roliaste som jag gjoat

En variant från Lönsboda aven visa som
sjungits runt om i landet.

Aibel = äpple
Aida = äta
Säl = själv

(Källa: Visor i Skåne, Utbildningsradion)

(:music:)
